!!!!SEGMENT: pl-cz--ii-87--009-005_chwalibog-izydor-konstanty--msza-zalobna-benedictus.krn
!!!cenid: 18xx:1211
!!!COM: Chwalibóg, Izydor Konstanty
!!!COM-rismID: pe30020334
!!!CDT: 1826-1897
!!!CNT: Polish
!!!OPR: Msza żałobna
!!!OTL: Benedictus
!!!OMV: 005
!!!PDT: 1888
!!!AGN: Sacred; Mass
!!!YEC: Copyright 2022 Narodowy Instytut Fryderyka Chopina (https://polishscores.org)
!!!YEM: License CC-BY-4.0 (https://creativecommons.org/licenses/by/4.0)
!!!SMS-siglum: PL-CZ
!!!SMS-shelfmark: II-87
!!!SMS-shelfwork: 009-005 M
!!!SMS-variant:
!!!SMS-altvar:
!!!NIFC-rismSourceID: 300033223
!!!NIFC-rismChildID: 300033232
!!!NIFC-islandoraID: pl-cz:33881
!!!URL-pdf-islandora: https://repozytorium.nifc.pl/islandora/object/pl-cz%3A33881/datastream/PDF/view
!!!URL-scan: https://polish.musicsources.pl/pl/lokalizacje/galeria/rekopisy/6814/1 @EN{Scan on Polish Music Sources Website} @PL{Skany w portalu Dziedzictwo Muzyki Polskiej w otwartym dostępie}
!!!IIIF:
!!!ONB-nifc: UWAGA: części Mszy: Kirie, Graduale, Offertorium, Sanctus, Benedictus, Agnus
!!!AIN: 1 bass 1 organ 1 tenor
!!!key: E-
**kern	**kern	**kern	**text	**kern	**text
*part3	*part3	*part2	*	*part1	*
*staff4	*staff3	*staff2	*	*staff1	*
*IGacmp	*IGacmp	*IGcoro	*	*IGcoro	*
*ICklav	*ICklav	*ICvox	*	*ICvox	*
*Iorgan	*Iorgan	*Ibass	*	*Itenor	*
*I"Organ	*	*I"Bas	*	*I"Tenory	*
*clefF4	*clefG2	*clefF4	*	*clefG2	*
*k[b-e-a-]	*k[b-e-a-]	*k[b-e-a-]	*	*k[b-e-a-]	*
*E-:	*E-:	*E-:	*	*E-:	*
*M4/4	*M4/4	*M4/4	*	*M4/4	*
*met(c)	*met(c)	*met(c)	*	*met(c)	*
=1	=1	=1	=1	=1	=1
*	*	*	*	*^	*
1E-	2g/ 2b-	2E-\	.	2b-/	2g\	Ten
.	4a-/ 4cc	4E-\	.	4cc/	4a-\	co
.	4g/ 4b-	8E-\	.	8b-/	8g\	w
.	.	8E-\	.	8b-/	8g\	I-
=2	=2	=2	=2	=2	=2	=2
2E-\	2g/ 2b-	2E-\	.	2b-/	2g\	-mie-
4E-\	4e-/ 4g	4E-\	.	4g/	4e-\	-niu
8G\L	4r	4r	.	4r	4reyy	.
8E-\J	.	.	.	.	.	.
=3	=3	=3	=3	=3	=3	=3
!	!LO:N:vis=2	!	!	!	!	!
2.BB-/	2f/ 2a-	4BB-\	.	4a-/	4f\	na
.	.	4BB-\	.	4a-/	4f\	ten
.	4en/ 4g	4BB-\	.	4g/	4en\	swiat
4BBn/	4f/ 4a-	4BBn\	.	4a-/	4f\	przy-
=4	=4	=4	=4	=4	=4	=4
2C\	2f/ 2a-	2C\	.	2a-/	2f\	-cho-
4C\	4e-/ 4g	4C\	.	4g/	4e-\	-dzi
4r	4r	4r	.	4r	4reyy	.
=5	=5	=5	=5	=5	=5	=5
1r	2g/ 2ee-	1r	.	2ee-/	2g\	wiel-
.	2b-/ 2dd	.	.	4dd/	4b-\	-bi
.	.	.	.	4dd/	4b-\	go
=6	=6	=6	=6	=6	=6	=6
2r	2b-/ 2dd	2r	.	2dd/	2b-\	zie-
2A-\	4a-/ 4cc	4A-\	i	4cc/	4a-\	-mia
.	4r	4A-\	na-	4r	4reyy	.
*	*	*	*	*v	*v	*
=7	=7	=7	=7	=7	=7
!!linebreak:original
4.B-\	1r	4.B-\	-tu-	1r	.
8A-\	.	8A-\	-ra	.	.
4A-\	.	4A-\	ca-	.	.
4G\	.	4G\	-ła	.	.
=8	=8	=8	=8	=8	=8
*	*	*	*	*^	*
1r	2g/ 2ee-	1r	.	2ee-/	2g\	two-
.	2b-/ 2dd	.	.	4dd/	4b-\	-ją
.	.	.	.	4dd/	4b-\	o-
=9	=9	=9	=9	=9	=9	=9
2r	2g/ 2bn	2r	.	2bn/	2g\	-so-
2A-\	4a-/ 4cc	4A-\	szczes-	4cc/	4a-\	-bą
.	4r	4A-\	-cie	4r	4reyy	.
*	*	*	*	*v	*v	*
=10	=10	=10	=10	=10	=10
*	*^	*	*	*	*
4.B-\	1rb	1rdd	4.B-\	swia-	1r	.
8A-\	.	.	8A-\	-tu	.	.
4En\	.	.	4En\	ro-	.	.
4F\	.	.	4F\	-dzi	.	.
*	*v	*v	*	*	*	*
=11	=11	=11	=11	=11	=11
*	*	*	*	*^	*
1r	2a-/ 2cc	1r	.	2cc/	2a-\	niech
.	4b-/ 4dd	.	.	4dd/	4b-\	.
.	4a-/ 4cc	.	.	4cc/	4a-\	mu
=12	=12	=12	=12	=12	=12	=12
1BB-	2g/ 2b-	2.BB-/	.	2b-/	2g\	bę-
.	4a-/ 4cc	.	.	4cc/	4a-\	-dzie
.	4g/ 4b-	4BB-/	.	4b-/	4g\	ch
=13	=13	=13	=13	=13	=13	=13
!!pagebreak:original
1BB-]	2f/ 2a-	2BB-/	.	2a-/	2f\	chwa-
.	4g/ 4b-	2BB-/	.	4b-/	4g\	-ła
.	4f/ 4a-	.	.	4a-/	4f\	chwa-
=14	=14	=14	=14	=14	=14	=14
2E-\	4e-/ 4g	2E-\	.	4g/	4e-\	-ła
.	4r	.	.	4r	4ryy	.
4F\	2r	4F\	.	2r	2ryy	.
4G\	.	4G\	.	.	.	.
=15	=15	=15	=15	=15	=15	=15
2A-\	2e-/ 2a- 2cc 2ee-	2A-\	.	2ee-/	2cc\	na
4AA-/	4f/ 4a- 4dd	4AA-/	.	4dd/	4f\	wie-
4AAn/	4e-/ 4f#X 4cc	4AAn/	.	4cc/	4f#X\	-ki
=16	=16	=16	=16	=16	=16	=16
2BB-\	2g/ 2b-	2BB-\	.	2b-/	2g\	wie-
4BB-\	4g/ 4b-	4BB-\	.	4b-/	4g\	-kow
4r	4r	4r	.	4r	4reyy	.
=17	=17	=17	=17	=17	=17	=17
*	*^	*	*	*	*	*
1BB-	2g/ 2b-	2reyy	4BB-\	.	4b-/	4g\	niech
.	.	.	4BB-\	.	4b-/	4g\	.
.	4cc/	2a-\	4BB-\	.	4cc/	4a-\	mu
.	4dd/	.	4BB-\	.	4dd/	4a-\	.
*	*v	*v	*	*	*	*	*
=18	=18	=18	=18	=18	=18	=18
4BB-/	2f/ 2a- 2dd	4BB-/	.	2dd/	2a-\	bę-
4BBn/	.	4BBn/	.	.	.	.
2C/	2g/ 2ee-	2BB\	.	2ee-/	2g\	-dzie
=19	=19	=19	=19	=19	=19	=19
2C\	2g/ 2ee-	2C\	.	2ee-/	2g\	chwa-
2AAn/	2g-X/ 2cc	4r	.	4cc/	4g-X\	-ła
.	.	4AAn/	.	4cc/	4g-\	na
=20	=20	=20	=20	=20	=20	=20
!!linebreak:original
1BB-	1g 1b-	2.BB-/	.	2.b-/	2.g\	wieki
.	.	4BB-/	.	4b-/	4g\	cześć
=21	=21	=21	=21	=21	=21	=21
1BB- 1B-	2g/ 2ee-	1BB-	.	2ee-/	2g\	i
.	2a-/ 2dd	.	.	2dd/	2a-\	chwa-
=22	=22	=22	=22	=22	=22	=22
2E-\	2g/ 2ee-	2E-\	.	2ee-/	2g\	-ła
2r	2r	2r	.	2r	2ryy	.
*	*	*	*	*v	*v	*
==	==	==	==	==	==
*-	*-	*-	*-	*-	*-
!!!system-decoration: (s1,s2){(s3,s4)}
!!!ENC: Marcin Jachim
!!!END: 2020-11-08
!!!ENC: Krzysztof Stępień
!!!END: 2021-11-15
